X:1
T:Title
%%score [ 1 2 3 ]
L:1/8
Q:1/4=300
M:3/2
K:Dmin
V:1 treble-8 nm="Tenor 1"
V:2 treble-8 nm="Tenor 2"
V:3 bass nm="Bass"
V:1
 A4 A4 B4 | c8 c4 | d8 d4 | c4 B4 A4 | G8 G4 ||[M:2/2] A4 A4 | z2 cc c4- | c2 c2 c2 B2 | A4 A4 | %9
w: Got mor- gen|com- pa-|ni- e,|got mor- gen|com- pa-|ni- e|nu' ve- nir|_ de nos- tre|ter- re,|
w: Quan zun- zer|in I-|ta- lie,|Quan zun- zer|in I-|ta- lie,|e che gus-|* ter sto' bon|vai- ne,|
 z2 dc B2 Bc | d2 de f4 | z2 Bc d4 | z2 de f2 de | f4 z2 de | f8 | c8- | c8 | B8- | B4 A4 | G8 | %20
w: per fu- zir per fu-|zir per fu- zir|per fu- zir|per fu- zir per fu-|zir per fu-|zir|quel|_|a-|* spre|guer-|
w: nu las- sar nu las-|sar nu las- sar|nu las- sar|nu las- sar nu las-|sar nu las-|sar|no-||ster|_ qua-|trin|
 A8 | c8 | d4 e4 | (dc B2 A4) | G2 A4 =B2 | c6 c2 | G2 ^F2 G4 | A4 z2 cc | B2 G2 A2 =B2 | %29
w: re|quel|a- spre|guer- * * *|re che far|la per|l'Un- ga- ri-|e, che far|là per l'Un- ga-|
w: _|nos-|ter qua-|trin _ _ qua-|trin pri- mo|zor- no\_a|l'o- ste- ri-|e, pri- mo|zor- no\_a l'o- ste-|
 c2 A2 z4 | z4 z2 cc | A2 A2 B4 | B2 A2 G4 | A8 ||[M:3/2] A4 A4 B4 | c8 c4 | d8 d4 | c4 B4 A4 | %38
w: ri- e,|che far|la per l'Un-|* ga- ri-|e,|||||
w: ri- e,|pri- mo|zor- no\_a l'o-|* ste- ri-|e,|Got mor- gen|com- pa-|ni- e,|got mor- gen|
 G8 G4 ||[M:2/2] A4 A4 |] %40
w: ||
w: com- pa-|ni- e|
V:2
 c4 d4 d4 | A8 A4 | B8 B4 | A4 G4 F4 | F8 E4 ||[M:2/2] F4 F4 | z2 AA A4- | A2 A2 A2 G2 | ^F4 F4 | %9
w: Got mor- gen|com- pa-|ni- e,|got mor- gen|com- pa-|ni- e|nu' ve- nir|_ de nos- tre|ter- re,|
w: Quan zun- zer|in I-|ta- lie,|Quan zun- zer|in I-|ta- lie,|e che gus-|* ter sto' bon|vai- ne,|
 z2 Bc d2 de | f4 z2 fe | d2 dc B2 x2 | z2 AG F2 GA | B8 | z2 FG A4 | z4 G4 | A6 G2 | F4 G4 | %18
w: per fu- zir per fu-|zir per fu-|zir per fu- zir|per fu- zir per fu-|zir|per fu- zir|quel|a- spre|guer- *|
w: nu las- sar nu las-|sar * *|* nu las- sar|nu las- sar nu las-|sar|nu las- sar|no-||ster qua-|
 E4 F4- | F4 E4 | F8 | A8 | A4 A4 | (^F2 G4 F2) | G2 ^F4 G2 | A6 F2 | E2 D2 E4 | F4 z4 | %28
w: ||re|quel|a- spre|guer- * *|re che far|la per|l'Un- ga- ri-|e,|
w: trin qua-||trin|nos-|ter qua-|trin qua- *|trin pri- mo|zor- no\_a|l'o- ste- ri-|e,|
 z2 GG F2 E2 | E2 F2 G4 | A6 G2 | F4 G4 | E2 F4 E2 | F8 ||[M:3/2] c4 d4 d4 | A8 A4 | B8 B4 | %37
w: che far la per|l'Un- ga- ri-|e, per|l'Un- ga-|ri- * *|e,||||
w: pri- mo zor- no\_a|l'o- ste- ri-|e, a|l'o- ste-|ri- * *|e,|Got mor- gen|com- pa-|ni- e,|
 A4 G4 F4 | F8 E4 ||[M:2/2] F4 F4 |] %40
w: |||
w: got mor- gen|com- pa-|ni- e|
V:3
 F,4 D,4 G,4 | F,8 F,4 | B,,8 B,,4 | F,,4 G,,4 A,,4 | B,,8 C,4 ||[M:2/2] F,,4 F,,4 | z2 F,F, F,4- | %7
w: Got mor- gen|com- pa-|ni- e,|got mor- gen|com- pa-|ni- e|nu' ve- nir|
w: Quan zun- zer|in I-|ta- lie,|Quan zun- zer|in I-|ta- lie,|e che gus-|
 F,2 F,2 F,2 G,2 | D,4 D,4 | B,,8- | B,,4 B,,4 | B,,8 | z2 F,E, D,2 D,C, | B,,4 z2 B,,C, | %14
w: _ de nos- tre|ter- re,|per|_ fu-|zir|per fu- zir per fu-|zir per fu-|
w: * ter sto' bon|vai- ne,|nu|_ las-|sar|nu las- sar nu las-|sar nu las-|
 D,2 D,E, F,4 | z4 C,4 | A,,8 | B,,8 | C,8- | C,8 | F,,8 | (F,8 | D,4) ^C,4 | D,8 | G,,2 D,4 G,2 | %25
w: zir per fu- zir|quel|a-|spre|guer-||re|quel|a- spre|guer-|re che far|
w: sar nu las- sar|no-||ster|qua-||trin|nos-|* ter|qua-|trin pri- mo|
 F,6 F,,2 | C,2 D,2 C,4 | F,2 F,F, E,2 C,2 | D,2 E,2 F,2 G,2 | C,2 D,D, E,2 C,2 | F,3 F, F,2 C,2 | %31
w: là per|l'Un- ga- ri-|e, che far là per|l'Un- ga- ri- *|e, che far là per|l'Un- ga- ri- e,|
w: zor- no\_a|l'o- ste- ri-|e, pri- mo zor- no\_a|l'o- ste- ri- *|e, pri- mo zor- no\_a|l'o- ste- ri- e\_a|
 D,4 B,,4 | C,8 | F,,8 ||[M:3/2] F,4 D,4 G,4 | F,8 F,4 | B,,8 B,,4 | F,,4 G,,4 A,,4 | B,,8 C,4 || %39
w: l'Un- ga-|ri-|e,||||||
w: l'o- ste-|ri-|e,|Got mor- gen|com- pa-|ni- e,|got mor- gen|com- pa-|
[M:2/2] F,,4 F,,4 |] %40
w: |
w: ni- e|

